share/icons/Flat-Remix-Blue-Dark/mimetypes/scalable/application-x-subrip.svg

<svg xmlns="http://www.w3.org/2000/svg" xmlns:xlink="http://www.w3.org/1999/xlink" width="36pt" height="36pt" version="1.1" viewBox="0 0 36 36"> <defs> <clipPath id="clip1"> <path d="M 20 2 L 31 2 L 31 13 L 20 13 Z M 20 2"/> </clipPath> <clipPath id="clip2"> <path d="M 20.515625 2.625 L 30.328125 12.4375 L 22.023438 12.4375 C 21.292969 12.4375 20.515625 11.660156 20.515625 10.929688 Z M 20.515625 2.625"/> </clipPath> <image id="image6" width="36" height="36" xlink:href="data:image/png;base64,iVBORw0KGgoAAAANSUhEUgAAACQAAAAkCAYAAADhAJiYAAAABmJLR0QA/wD/AP+gvaeTAAAAmklEQVRYhe3T0QqCQBBG4aOtYEoUvf9Lildltl00C4tkbBeTIP+BAUEYP1YW1Pcqh53B9kbgaVPcwQF0tAmGSrMZ6AKcDQXw+AUVHEAtcAUaewYYgYmC3+cBCkAPnDJQMcoDVNnebgEqQnmAclTz4d0I3P4JStc9AjXvk4qLWQV53LLeEOl05gw4A3dgcPiuUkoppZRSSqk99gLWvSJpuDnlsAAAAABJRU5ErkJggg=="/> <clipPath id="clip3"> <path d="M 11 14 L 25 14 L 25 24 L 11 24 Z M 11 14"/> </clipPath> <clipPath id="clip4"> <path d="M 30.070312 20.238281 C 30.070312 26.714844 24.664062 31.960938 18.003906 31.960938 C 11.34375 31.960938 5.9375 26.714844 5.9375 20.238281 C 5.9375 13.765625 11.34375 8.519531 18.003906 8.519531 C 24.664062 8.519531 30.070312 13.765625 30.070312 20.238281 Z M 30.070312 20.238281"/> </clipPath> <clipPath id="clip5"> <path d="M 13 21 L 23 21 L 23 27 L 13 27 Z M 13 21"/> </clipPath> <clipPath id="clip6"> <path d="M 30.070312 20.238281 C 30.070312 26.714844 24.664062 31.960938 18.003906 31.960938 C 11.34375 31.960938 5.9375 26.714844 5.9375 20.238281 C 5.9375 13.765625 11.34375 8.519531 18.003906 8.519531 C 24.664062 8.519531 30.070312 13.765625 30.070312 20.238281 Z M 30.070312 20.238281"/> </clipPath> </defs> <g> <path style="fill:rgb(14.901%,35.294%,69.411%)" d="M 7.347656 3.152344 C 6.675781 3.152344 6.042969 3.785156 6.042969 4.457031 L 6.042969 31.847656 C 6.042969 32.480469 6.714844 33.152344 7.347656 33.152344 L 28.21875 33.152344 C 28.851562 33.152344 29.523438 32.480469 29.523438 31.847656 L 29.523438 11.632812 L 21.042969 3.152344 Z M 7.347656 3.152344"/> <g clip-path="url(#clip1)"> <g clip-path="url(#clip2)"> <use xlink:href="#image6"/> </g> </g> <path style="fill:rgb(23.137%,54.509%,72.156%)" d="M 21.042969 3.152344 L 29.523438 11.632812 L 22.347656 11.632812 C 21.714844 11.632812 21.042969 10.960938 21.042969 10.328125 Z M 21.042969 3.152344"/> <g clip-path="url(#clip3)"> <g clip-path="url(#clip4)"> <path style="fill:rgb(100.000%,100.000%,100.000%)" d="M 15.480469 14.125 C 13.421875 14.125 11.703125 16.101562 11.703125 18.101562 L 11.703125 20.089844 C 11.703125 22.089844 13.421875 23.8125 15.480469 23.8125 L 20.519531 23.8125 C 22.578125 23.8125 24.296875 22.089844 24.296875 20.089844 L 24.296875 18.101562 C 24.296875 16.101562 22.578125 14.125 20.519531 14.125"/> </g> </g> <g clip-path="url(#clip5)"> <g clip-path="url(#clip6)"> <path style="fill:rgb(100.000%,100.000%,100.000%)" d="M 22.84375 21.875 L 15.578125 21.875 L 13.640625 26.71875"/> </g> </g> </g> </svg>

<svg width="36pt" height="36pt" version="1.1" viewBox="0 0 36 36" xmlns="http://www.w3.org/2000/svg"><defs><filter id="a" x="-.192" y="-.192" width="1.384" height="1.384" color-interpolation-filters="sRGB"><feGaussianBlur stdDeviation="0.67843748"/></filter><clipPath id="e"><path d="m11 14h14v10h-14z"/></clipPath><clipPath id="d"><path d="m30.07 20.238c0 6.4766-5.4062 11.723-12.066 11.723s-12.066-5.2461-12.066-11.723c0-6.4727 5.4062-11.719 12.066-11.719s12.066 5.2461 12.066 11.719z"/></clipPath><clipPath id="c"><path d="m13 21h10v6h-10z"/></clipPath><clipPath id="b"><path d="m30.07 20.238c0 6.4766-5.4062 11.723-12.066 11.723s-12.066-5.2461-12.066-11.723c0-6.4727 5.4062-11.719 12.066-11.719s12.066 5.2461 12.066 11.719z"/></clipPath></defs><path d="m7.3477 3.9022c-0.67188 0-1.3047 0.63281-1.3047 1.3047v27.391c0 0.63281 0.67188 1.3047 1.3047 1.3047h20.871c0.63281 0 1.3047-0.67188 1.3047-1.3047v-20.215l-8.4805-8.4805z" opacity=".3"/><path d="m7.3477 3.1523c-0.67188 0-1.3047 0.63281-1.3047 1.3047v27.391c0 0.63281 0.67188 1.3047 1.3047 1.3047h20.871c0.63281 0 1.3047-0.67188 1.3047-1.3047v-20.215l-8.4805-8.4805z" fill="#2559b0"/><path d="m20.668 3.5272 8.4805 8.4805h-7.1758c-0.63281 0-1.3047-0.67187-1.3047-1.3047z" filter="url(#a)" opacity=".2"/><path d="m21.043 3.1523 8.4805 8.4805h-7.1758c-0.63281 0-1.3047-0.67187-1.3047-1.3047z" fill="#3a8ab7"/><g clip-path="url(#e)"><g clip-path="url(#d)"><path d="m15.48 14.125c-2.0586 0-3.7773 1.9766-3.7773 3.9766v1.9883c0 2 1.7188 3.7227 3.7773 3.7227h5.0391c2.0586 0 3.7773-1.7227 3.7773-3.7227v-1.9883c0-2-1.7188-3.9766-3.7773-3.9766" fill="#fff"/></g></g><g clip-path="url(#c)"><g clip-path="url(#b)"><path d="m22.844 21.875h-7.2656l-1.9375 4.8438" fill="#fff"/></g></g></svg>
